public/assets/wr.svg

<svg xmlns="http://www.w3.org/2000/svg" width="45" height="45" fill="#fff" fill-rule="evenodd" stroke="#505050" xmlns:v="https://vecta.io/nano"><g stroke-linecap="butt" stroke-width="1.2"><path d="M11 14.1v-5h4v2h5v-2h5v2h5v-2h4v5" stroke-linejoin="round"/><path stroke-linejoin="miter" d="M31 17.1v12.5H14V17.1"/></g><path stroke-width="1.2" d="M34 14.1l-3 3H14l-3-3zM31 29.02l1.5 5.07h-20l1.5-5.07z" stroke-linejoin="round"/><g stroke-linejoin="miter"><path fill="none" stroke-width="1.2" d="M11 14.1h23" stroke-linecap="round"/><path stroke-width="1.3" d="M10.3 38.9c-.1-3.01-.9-7.08 5.6-7.08h13c5.91.03 6.02 3.66 5.85 7.09z"/></g></svg>

<?xml version="1.0" encoding="UTF-8" standalone="no"?>
<!DOCTYPE svg PUBLIC "-//W3C//DTD SVG 1.1//EN" "http://www.w3.org/Graphics/SVG/1.1/DTD/svg11.dtd">
<svg xmlns="http://www.w3.org/2000/svg" version="1.1" width="45" height="45">
  <g style="opacity:1; fill:#ffffff; fill-opacity:1; fill-rule:evenodd; stroke:#000000; stroke-width:1.5; stroke-linecap:round;stroke-linejoin:round;stroke-miterlimit:4; stroke-dasharray:none; stroke-opacity:1;">
    <path
      d="M 9,39 L 36,39 L 36,36 L 9,36 L 9,39 z "
      style="stroke-linecap:butt;" />
    <path
      d="M 12,36 L 12,32 L 33,32 L 33,36 L 12,36 z "
      style="stroke-linecap:butt;" />
    <path
      d="M 11,14 L 11,9 L 15,9 L 15,11 L 20,11 L 20,9 L 25,9 L 25,11 L 30,11 L 30,9 L 34,9 L 34,14"
      style="stroke-linecap:butt;" />
    <path
      d="M 34,14 L 31,17 L 14,17 L 11,14" />
    <path
      d="M 31,17 L 31,29.5 L 14,29.5 L 14,17"
      style="stroke-linecap:butt; stroke-linejoin:miter;" />
    <path
      d="M 31,29.5 L 32.5,32 L 12.5,32 L 14,29.5" />
    <path
      d="M 11,14 L 34,14"
      style="fill:none; stroke:#000000; stroke-linejoin:miter;" />
  </g>
</svg>
